X: 1
T: Hundred Pipers
R: jig
M: 6/8
L: 1/8
K: Amaj
|:c2E EFE|F2A A2f|e2c cBA|BcB BAB|
c2E EFE|F2A A2f|e2c BcB|1 A3 A2B:|2 A3 c2d||
|:e2e ece|f2a agf|e2c cBA|BcB Bcd|
e2e ece|f2a agf|e2c BcB|A3 A2B:||


Tune 1232	Setting 23663

